public/img/Logo-2030.svg

<svg fill="none" height="1063" viewBox="0 0 1063 1063" width="1063" xmlns="http://www.w3.org/2000/svg"><path d="m361.851 531.32c0 104.204 70.908 162.163 170.179 162.163 85.09 0 162.78-46.244 167.096-135.033h-98.654c-3.7 27.747-28.98 48.711-68.442 48.711-46.861 0-71.524-27.747-71.524-75.841 0-47.477 24.663-75.224 71.524-75.224 39.462 0 64.742 20.964 68.442 48.711h98.654c-4.316-88.789-82.006-135.034-167.096-135.034-99.271 0-170.179 57.96-170.179 161.547z" fill="#5d3ede"/><path d="m869.712 531.434c0 186.138-151.425 337.241-338.474 337.241-187.048 0-338.473-151.103-338.473-337.241s151.425-337.24 338.473-337.24c187.049 0 338.474 151.102 338.474 337.24z" stroke="#5d3ede" stroke-width="74.0593"/><path d="m797.559 265.737c34.858 34.858 62.509 76.241 81.374 121.785 18.865 45.545 28.575 94.359 28.575 143.656s-9.71 98.111-28.575 143.656c-18.865 45.544-46.516 86.927-81.374 121.785l-53.088-53.088c27.886-27.887 50.007-60.993 65.099-97.428 15.092-36.436 22.86-75.487 22.86-114.925 0-39.437-7.768-78.489-22.86-114.924-15.092-36.436-37.213-69.542-65.099-97.429z" fill="#3dd7ac"/><path d="m265.441 796.323c-34.858-34.858-62.509-76.241-81.374-121.785-18.865-45.545-28.575-94.359-28.575-143.656s9.71-98.111 28.575-143.656c18.865-45.544 46.516-86.927 81.374-121.785l53.088 53.088c-27.886 27.887-50.007 60.993-65.099 97.429-15.092 36.435-22.86 75.487-22.86 114.924 0 39.438 7.768 78.489 22.86 114.925 15.092 36.435 37.213 69.542 65.099 97.428z" fill="#3dd7ac"/><path d="m361.851 531.32c0 104.204 70.908 162.163 170.179 162.163 85.09 0 162.78-46.244 167.096-135.033h-98.654c-3.7 27.747-28.98 48.711-68.442 48.711-46.861 0-71.524-27.747-71.524-75.841 0-47.477 24.663-75.224 71.524-75.224 39.462 0 64.742 20.964 68.442 48.711h98.654c-4.316-88.789-82.006-135.034-167.096-135.034-99.271 0-170.179 57.96-170.179 161.547z" fill="#5d3ede"/><path d="m869.712 531.434c0 186.138-151.425 337.241-338.474 337.241-187.048 0-338.473-151.103-338.473-337.241s151.425-337.24 338.473-337.24c187.049 0 338.474 151.102 338.474 337.24z" stroke="#5d3ede" stroke-width="74.0593"/><g fill="#3dd7ac"><path d="m797.559 265.737c34.858 34.858 62.509 76.241 81.374 121.785 18.865 45.545 28.575 94.359 28.575 143.656s-9.71 98.111-28.575 143.656c-18.865 45.544-46.516 86.927-81.374 121.785l-53.088-53.088c27.886-27.887 50.007-60.993 65.099-97.428 15.092-36.436 22.86-75.487 22.86-114.925 0-39.437-7.768-78.489-22.86-114.924-15.092-36.436-37.213-69.542-65.099-97.429z"/><path d="m265.441 796.323c-34.858-34.858-62.509-76.241-81.374-121.785-18.865-45.545-28.575-94.359-28.575-143.656s9.71-98.111 28.575-143.656c18.865-45.544 46.516-86.927 81.374-121.785l53.088 53.088c-27.886 27.887-50.007 60.993-65.099 97.429-15.092 36.435-22.86 75.487-22.86 114.924 0 39.438 7.768 78.489 22.86 114.925 15.092 36.435 37.213 69.542 65.099 97.428z"/></g></svg>

<svg width="1063" height="1063" viewBox="0 0 1063 1063" fill="none" xmlns="http://www.w3.org/2000/svg">
<path d="M361.851 531.32C361.851 635.524 432.759 693.483 532.03 693.483C617.12 693.483 694.81 647.239 699.126 558.45H600.472C596.772 586.197 571.492 607.161 532.03 607.161C485.169 607.161 460.506 579.414 460.506 531.32C460.506 483.843 485.169 456.096 532.03 456.096C571.492 456.096 596.772 477.06 600.472 504.807H699.126C694.81 416.018 617.12 369.773 532.03 369.773C432.759 369.773 361.851 427.733 361.851 531.32Z" fill="#5D3EDE"/>
<path d="M869.712 531.434C869.712 717.572 718.287 868.675 531.238 868.675C344.19 868.675 192.765 717.572 192.765 531.434C192.765 345.296 344.19 194.194 531.238 194.194C718.287 194.194 869.712 345.296 869.712 531.434Z" stroke="#5D3EDE" stroke-width="74.0593"/>
<path d="M797.559 265.737C832.417 300.595 860.068 341.978 878.933 387.522C897.798 433.067 907.508 481.881 907.508 531.178C907.508 580.475 897.798 629.289 878.933 674.834C860.068 720.378 832.417 761.761 797.559 796.619L744.471 743.531C772.357 715.644 794.478 682.538 809.57 646.103C824.662 609.667 832.43 570.616 832.43 531.178C832.43 491.741 824.662 452.689 809.57 416.254C794.478 379.818 772.357 346.712 744.471 318.825L797.559 265.737Z" fill="#3DD7AC"/>
<path d="M265.441 796.323C230.583 761.465 202.932 720.082 184.067 674.538C165.202 628.993 155.492 580.179 155.492 530.882C155.492 481.585 165.202 432.771 184.067 387.226C202.932 341.682 230.583 300.299 265.441 265.441L318.529 318.529C290.643 346.416 268.522 379.522 253.43 415.958C238.338 452.393 230.57 491.445 230.57 530.882C230.57 570.32 238.338 609.371 253.43 645.807C268.522 682.242 290.643 715.349 318.529 743.235L265.441 796.323Z" fill="#3DD7AC"/>
<path d="M361.851 531.32C361.851 635.524 432.759 693.483 532.03 693.483C617.12 693.483 694.81 647.239 699.126 558.45H600.472C596.772 586.197 571.492 607.161 532.03 607.161C485.169 607.161 460.506 579.414 460.506 531.32C460.506 483.843 485.169 456.096 532.03 456.096C571.492 456.096 596.772 477.06 600.472 504.807H699.126C694.81 416.018 617.12 369.773 532.03 369.773C432.759 369.773 361.851 427.733 361.851 531.32Z" fill="#5D3EDE"/>
<path d="M869.712 531.434C869.712 717.572 718.287 868.675 531.238 868.675C344.19 868.675 192.765 717.572 192.765 531.434C192.765 345.296 344.19 194.194 531.238 194.194C718.287 194.194 869.712 345.296 869.712 531.434Z" stroke="#5D3EDE" stroke-width="74.0593"/>
<path d="M797.559 265.737C832.417 300.595 860.068 341.978 878.933 387.522C897.798 433.067 907.508 481.881 907.508 531.178C907.508 580.475 897.798 629.289 878.933 674.834C860.068 720.378 832.417 761.761 797.559 796.619L744.471 743.531C772.357 715.644 794.478 682.538 809.57 646.103C824.662 609.667 832.43 570.616 832.43 531.178C832.43 491.741 824.662 452.689 809.57 416.254C794.478 379.818 772.357 346.712 744.471 318.825L797.559 265.737Z" fill="#3DD7AC"/>
<path d="M265.441 796.323C230.583 761.465 202.932 720.082 184.067 674.538C165.202 628.993 155.492 580.179 155.492 530.882C155.492 481.585 165.202 432.771 184.067 387.226C202.932 341.682 230.583 300.299 265.441 265.441L318.529 318.529C290.643 346.416 268.522 379.522 253.43 415.958C238.338 452.393 230.57 491.445 230.57 530.882C230.57 570.32 238.338 609.371 253.43 645.807C268.522 682.242 290.643 715.349 318.529 743.235L265.441 796.323Z" fill="#3DD7AC"/>
</svg>
